X:83
T:A Lady to her Husband who was killed at the Battle of Culloden
T:Mo r\`un geal og
R:Slow Air
S:Simon Fraser Collection
N:No.205
O:Scottish
M:3/4
L:1/8
Q:1/4=70
K:E Minor
G>A|B2A2B2|(G2 E)z D>D|(B2d)z A2|B2dz e>e|e2d2e2|(d2B)z B>d|e2B2A2|
(G2E)z D>E|G2A2G2|e2dz g>f|e2E2F2|(E2D)z c>d|B2A2B2|(e2d)z d>B|A2G2A2|
(B2A)z zG|(E4D2)|[B,6E6]|[B,4E4]||E>F|G3FE2|DB,2 z G>B|d2B2[F2A2]|
(B2d)z e>f|g3f e2|dB2 z B>d|e2A2B2|(G2E)z D>E|G2A2G2|(e2d)z g>f|e2E2F2|
(E2D)z c>d|B2A2B2|(e2d)z d>B|A2G2A2|(B2A)z zG|(E4D2)|([B,6E6]|[B,4E4])||

